X:5116
T:The Giro
M:4/4
R:Reel
L:1/8
Q:180
C:Aidan Crossey
K:G
|:BGcA BdcA|BdcA FD (3DDD|BGcA BdcA|BdcA G2 GA:||
|:BGce dgba|dBGB ABcA|BGce dgba|dBGB A2 G2:||
